X:6238
T:Gigue de la De`bauche
C:Joseph Allard
M:6/8
L:1/8
K:G
d|g2 B BAG|Bdd dBG|cec BdB|AFA def|!
g2 B BAG|Bdd dBG|cec BdB|AcA G2:|!
|:B|def g2 g|faf d2 d|def gfg|a2 a gbb|!
gbg faf|ege dBG|cec BdB|AFA G2:|!
